projects/vfh1/img/icons-service/cupboard.svg

<svg viewBox="0 0 33 28" fill="none" xmlns="http://www.w3.org/2000/svg">
<path fill-rule="evenodd" clip-rule="evenodd" d="M28.68 9.02006L28.38 8.72007L25.65 11.6101L25.87 11.8301C26.0301 11.9835 26.2433 12.0691 26.465 12.0691C26.6868 12.0691 26.8999 11.9835 27.06 11.8301L28.68 10.2501C28.7583 10.172 28.8205 10.0793 28.8629 9.97719C28.9053 9.87509 28.9271 9.76562 28.9271 9.65507C28.9271 9.54451 28.9053 9.43504 28.8629 9.33294C28.8205 9.23083 28.7583 9.1381 28.68 9.06006V9.02006ZM28.14 8.45006L27.65 7.96007L24.9 10.8501L25.38 11.3401L28.14 8.45006ZM27.38 7.72007L23.97 4.25007C23.8923 4.1697 23.799 4.10607 23.6959 4.06308C23.5927 4.02009 23.4818 3.99864 23.37 4.00007H19.97C19.774 4.0022 19.5842 4.069 19.43 4.19007L16.97 6.25007L14.45 4.25007C14.3088 4.12676 14.1275 4.0592 13.94 4.06006H10.54C10.4369 4.04814 10.3324 4.05897 10.2339 4.0918C10.1355 4.12463 10.0454 4.17865 9.97002 4.25007L6.43002 7.79007L9.18002 10.6801L10.18 9.68007V21.1501H23.73V9.69007L24.63 10.6101L27.38 7.72007ZM6.17002 8.07007L5.68002 8.56006L8.44002 11.4501L8.92002 10.9601L6.17002 8.07007ZM5.44002 8.83007L5.25002 9.02006C5.17042 9.09623 5.10719 9.18785 5.0642 9.2893C5.02122 9.39074 4.99938 9.49989 5.00002 9.61007C4.99918 9.72175 5.02089 9.83246 5.06385 9.93556C5.1068 10.0387 5.17013 10.132 5.25002 10.2101L6.87002 11.8301C7.03012 11.9835 7.24329 12.0691 7.46502 12.0691C7.68676 12.0691 7.89992 11.9835 8.06002 11.8301L8.19002 11.7201L5.44002 8.83007ZM10.22 21.9901V22.4801C10.2174 22.5881 10.2363 22.6956 10.2758 22.7962C10.3154 22.8968 10.3746 22.9884 10.4501 23.0658C10.5256 23.1431 10.6158 23.2046 10.7154 23.2465C10.815 23.2885 10.9219 23.3101 11.03 23.3101H22.9C23.1202 23.3101 23.3313 23.2226 23.4869 23.067C23.6426 22.9113 23.73 22.7002 23.73 22.4801V21.9901H10.22Z" fill="#42474D"/>
</svg>

<svg viewBox="0 0 33 28" fill="none" xmlns="http://www.w3.org/2000/svg"><path fill-rule="evenodd" clip-rule="evenodd" d="M28.68 9.02l-.3-.3-2.73 2.89.22.22a.86.86 0 001.19 0l1.62-1.58a.841.841 0 000-1.19v-.04zm-.54-.57l-.49-.49-2.75 2.89.48.49 2.76-2.89zm-.76-.73l-3.41-3.47a.82.82 0 00-.6-.25h-3.4a.89.89 0 00-.54.19l-2.46 2.06-2.52-2a.77.77 0 00-.51-.19h-3.4a.71.71 0 00-.57.19L6.43 7.79l2.75 2.89 1-1v11.47h13.55V9.69l.9.92 2.75-2.89zm-21.21.35l-.49.49 2.76 2.89.48-.49-2.75-2.89zm-.73.76l-.19.19a.81.81 0 00-.25.59.83.83 0 00.25.6l1.62 1.62a.86.86 0 001.19 0l.13-.11-2.75-2.89zm4.78 13.16v.49a.811.811 0 00.81.83H22.9a.83.83 0 00.83-.83v-.49H10.22z" fill="#42474D"/></svg>
